X: 1
T: Karl XII:s vals #1
R: Vals
S: Efter Anders Edvin Pettersson
Z: C-G Magnusson, 2009-02-25
O: Fr\"andefors, Dalsland
N: Efter fadern
B: Svenska L\aatar Dalsland nr 294
%Q: 140
M: 3/4
L: 1/8
K: D
|: DF AD FA | DG BD GB | Ac eA ce |1,3 Ad fe d2 :|2,4 d2 z2 z2 :|
|: fa g2 f2 | eg fe d2 | Ac eA ce |1,3 Ad fA df :|2,4 d2 z2 z2 :|
|: gb bd gb | ba ag f2 | ef gA ce |1,3 dc de f2 :|2,4 d2 z2 z2 :|
